icons/pie-chart-line.svg

<svg xmlns="http://www.w3.org/2000/svg" width="24" height="24" fill="none"><g clip-path="url(#a)"><g><path fill="#121212" d="M12 22C6.477 22 2 17.523 2 12C2 7.522 4.943 3.732 9 2.458V4.582C7.28092 5.28005 5.8578 6.55371 4.97406 8.18512C4.09032 9.81652 3.80088 11.7043 4.15525 13.5255C4.50963 15.3468 5.48579 16.9883 6.91676 18.1693C8.34774 19.3503 10.1446 19.9975 12 20C13.5938 20 15.1513 19.524 16.4728 18.6332C17.7944 17.7424 18.82 16.4773 19.418 15H21.542C20.268 19.057 16.478 22 12 22ZM21.95 13H11V2.05C11.329 2.017 11.663 2 12 2C17.523 2 22 6.477 22 12C22 12.337 21.983 12.671 21.95 13ZM13 4.062V11H19.938C19.7154 9.23761 18.9129 7.59934 17.6568 6.34324C16.4007 5.08713 14.7624 4.28459 13 4.062Z"/></g></g><defs><clipPath id="a"><rect width="24" height="24" fill="white"/></clipPath></defs></svg>

<svg width="24" height="24" fill="none" xmlns="http://www.w3.org/2000/svg"><g clip-path="url(#a)"><path d="M12 22C6.477 22 2 17.523 2 12c0-4.478 2.943-8.268 7-9.542v2.124A8.003 8.003 0 0 0 12 20a8.002 8.002 0 0 0 7.418-5h2.124c-1.274 4.057-5.064 7-9.542 7Zm9.95-9H11V2.05c.329-.033.663-.05 1-.05 5.523 0 10 4.477 10 10 0 .337-.017.671-.05 1ZM13 4.062V11h6.938A8.004 8.004 0 0 0 13 4.062Z" /></g><defs><clipPath id="a"><path fill="#fff" d="M0 0h24v24H0z"/></clipPath></defs></svg>
